build/svg/chart2/res/typepointline_16.svg

<svg viewBox="0 0 16 16" xmlns="http://www.w3.org/2000/svg"><path d="m2 2v3 1 2 1 2 1 1h-1v1h1v1h1v-1h11v-1h-11v-1h1 2l2-2h1.59375l2 2h2.40625v-1h-2l-2-2h-1-.40625-1l-2 2h-1.59375-1v-2h1.875l2-2 .84375-.8125 1.28125-1.3125 2.125 2.125 2-2 .84375-.8125.03125-.0625-.6875-.6875-.0625.03125-.8125.8125-1.3125 1.3125-2.125-2.125-1.53125 1.53125-.46875.46875-.84375.8125-1.6875 1.71875h-1.46875v-1-1-1-3z" fill="#232629"/></svg>

<svg viewBox="0 0 16 16" xmlns="http://www.w3.org/2000/svg"><path d="M2 2v11H1v1h1v1h1v-1h11v-1H3v-1h3l2-2h1.594l2 2H14v-1h-2l-2-2H7.594l-2 2H3V9h1.875l2-2 .844-.813L9 4.875 11.125 7l2-2 .844-.813.031-.062-.688-.688-.062.032-.813.812-1.312 1.313L9 3.469 7.469 5 7 5.469l-.844.812L4.47 8H3V2z" fill="#232629"/></svg>
